X: 1
T: Lift High The Cross
C: Words: George W. Kitchin (1827-1912); Modified by Michael R. Newbolt, 1916. 
C: Music: 'Crucifier' Sydney H. Nicholson, 1916.  Setting: Hymns Ancient and Modern, 1922.
C: copyright: public domain.  This score is a part of the Open Hymnal Project, 2006 Revision.
S: Music source: 'Lutheran Worship' Hymnal, 1982 Hymn 311.  From "Hymns Ancient and Modern", Standard Edition Hymn 745, 1922.
M: 4/4 % time signature
L: 1/4 % default length
%%staves (S1V1 S1V2) | (S2V1 S2V2) 
V: S1V1 clef=treble 
V: S1V2 
V: S2V1 clef=bass 
V: S2V2 
K: C % key signature
%
%%MIDI program 1 0 % Piano 1
%%MIDI program 2 0 % Piano 1
%%MIDI program 3 0 % Piano 1
%%MIDI program 4 0 % Piano 1
%
% 1
[V: S1V1] [Q:1/4=120] "^Refrain" G2 c3/2 G/ | F3 G | E3/2 F/ G A | D3
w: Lift high the cross, the love of Christ pro- claim, 
[V: S1V2]  (C D) E C- | C (B, C) D | C3 C | (C B, A,)
[V: S2V1]  (E, F,) G,2 | (A, G, F,) D, | G,3/2 F,/ E, D, | G,3
[V: S2V2]  C,,3 E,, | (D,, G,, A,,) B,, | C, A,, G,, ^F,, | (G,,2 A,,)
% 5
[V: S1V1]  D | E G c2- | c A G2- | G A F/E/ D | C4 |]
w: Till all the world  * a- dore  * His sac- * red Name. 
[V: S1V2]  G, | G, B, (C D | E) F (G F | E) D/C/ C B,/A,/ | G,4 |]
[V: S2V1]  F, | E, F, (G, A, | B,) C (D C | B,) A, A,/G,/ F, | (F, D, E,2) |]
[V: S2V2]  B,, | C, D, (E, F, | G,) A, (B, A, | G,) F,/E,/ D, G,, | C,4 |]
% 9
[V: S1V1]  "^Verse" G2 ^F3/2 E/ | ^F2 D2 | E3/2 ^F/ G A | B2
w: 1.~Come, breth- ren, fol- low where our Cap- tain trod,
w: 2.~Led on their way by this tri- um- phant sign, 
w: 3.~Each new- born ser- vant of the Cru- ci- fied 
w: 4.~This is the sign which Sa- tan's le- gions fear
w: 5.~Saved by this Cross where- on their Lord was slain,
[V: S1V2]  (E D) C3/2 C/ | D2 D2 | G,3/2 B,/ B, E | ^D2
[V: S2V1]  B,2 A,3/2 A,/ | A,2 (G, ^F,) | E,3/2 ^D,/ E, E, | ^F,2
[V: S2V2]  E,2 A,,3/2 A,,/ | (D, C,) B,,2 | C,3/2 B,,/ E, C, | B,,2
% 13
[V: S1V1]  G2 | c2 (B A) | d2 D2 | E3/2 G/ G ^F | "^To Refrain" G4 ||
w: our King vic- * tor- ious, Christ the Son of God.
w: The hosts of * God in con- quering ranks com- bine. 
w: Bears on the * brow the seal of Him Who died. 
w: and an- gels * veil their fa- ces to re- vere.
w: the sons of * A- dam their lost home re- gain.
[V: S1V2]  (E =D) | (C E) D2 | D2 D2 | C3/2 E/ D D | D4{[=F4C4A,4] [D4A,4F,4] [E4B,4G,4]} ||
[V: S2V1]  G,2 | (A, G,) ^F,2 | (G, A,) (G, ^F,) | E,3/2 C/ A, A, | B,4 ||
[V: S2V2]  E,2 | A,,2 (D, C,) | B,,2 B,,2 | C,3/2 C,/ D, D, | G,,4 ||
% 18
W:6.From north and south, from east and west they raise
W:in growing unison their songs of praise. Refrain
W:
W:7.O Lord, once lifted on the glorious tree,
W:as thou hast promised, draw the world to thee. Refrain
W:
W:8.So shall our song of triumph ever be: 
W:Praise to the Crucified for victory. Refrain
W: 
W:9.Let every race and every language tell
W:of him who saves our souls from death and hell. Refrain
W:
W:10.From farthest regions let their homage bring,
W:and on his Cross adore their Savior King. Refrain
W:
W:11.Set up thy throne, that earth's despair may cease
W:beneath the shadow of its healing peace. Refrain
W:
W:12.For thy blest Cross which doth for all atone
W:creation's praises rise before thy throne. Refrain 

